X: 1259
T: Tranan, polska efter Byss-Kalle (nr 8)
S: efter Byss-Kalle
B: 57 låtar efter Byss-Kalle nr 8
N: Uppteckningen är ursprungligen hämtad ur Ruben Liljefors bok Upländsk Folkmusik.
O: Uppland
R: Polska
Z: Nils L
M: 3/4
L: 1/16
K: C
c2eg c'2ge {cB}c2eg | (fe)dc d2d2 (fe)de | c2eg c'2ge c2eg |1 (fe)fd d4 c4 :|
[2 (fe)fd d4 c2gf |: (ef)gf e2e2 (ec)eg | (fe)dc (dc)de d2ed | (ef)gf e2e2 (ec)eg |
(fe)dc (dc)de d2ed | c2eg c'2ge {cB}c2eg |1 (fe)fd d4 c2gf :|2 (fe)fd d4 c4 |]
(:musicend:)

(:music:)
